!!!OTL: Es ist das Heil
!!!COL: Orgelbüchlein
**kern	**text
*clefG2	*
*k[f#c#g#d#]	*
*E:	*
*M4/4	*
=0	=0
4b	Es
=1	=1
4b	ist
4b	das
4b	Heil
4dd	uns
=2	=2
4cc#	kom-
4b	-men
4a;	her
4b	von
=3	=3
4g#	Gnad
8Le	und
8Jf#	.
4g#	lau-
4a	ter
=4	=4
4b	Gü-
4cc#	.
4b;	te;
4b	die
=5	=5
4b	Werk,
4b	die
4b	hel-
4dd	fen
=6	=6
4cc#	nim-
4b	mer-
4a;	mehr,
4b	sie
=7	=7
4g#	kön-
8Le	.
8Jf#	-nen
4g#	nicht
4g#	be-
=8	=8
4b	hü-
4cc#	.
4b;	ten.
4b	Der
=9	=9
4ee	Glaub
4dd#	sieht
4cc#	Je-
4dd#	sum
=10	=10
8Lee	Chris-
8Jdd#	.
4cc#	tus
4b;	an,
4b	der
=11	=11
4ee	hat
4b	für
4cc#	uns
8Lg#	ge-
8Ja	.
=12	=12
4b	nug
4a	ge-
4g#;	tan,
4g#	er
=13	=13
4f#	ist
4a	der
4g#	Mitt-
4f#	ler
=14	=14
4c#	word-
4d#	.
4e;	en.
==	==
*-	*-
